**kern	**kern	**dynam
*part1	*part1	*part1
*staff2	*staff1	*
*I"Piano	*	*
*clefF4	*clefG2	*
*k[f#c#]	*k[f#c#]	*
=1	=1	=1
12DDL	8.aL 8.dd 8.ff#	.
12AA	.	.
12DJ	.	.
.	16ddJk	.
12F#L	12ddL	.
12D	12a	.
12AAJ	12f#J	.
=	=	=
12DDL	8.f#L 8.a 8.dd	.
12AA	.	.
12DJ	.	.
.	16aJk	.
12F#L	12aL	.
12D	12f#	.
12AAJ	12aJ	.
=	=	=
!	!LO:TX:b:i:t=dim.	!
12DD'L	8d	.
12AA'	.	.
!	!	!LO:DY:a
.	8r	mp
12D'J	.	.
!	!	!LO:DY:a
8F#'	(8BL 8d 8f#	> p
8r	8AJ)	.
=	=	=
12DD'L	4r	] pp
12AA'	.	.
!	!LO:TX:b:i:t=dim.	!
12D'J	.	.
!	!	!LO:DY:a
8F#'	(8BL 8d 8f#	>
8r	8AJ)	.
=	=	=
12DD'L	4r	] pp
12AA'	.	.
12D'J	.	.
!	!LO:TX:b:i:t=smorz.	!
!	!LO:TX:a:i:t=calando.	!LO:DY:a
4r	(8GL 8A 8d	>
.	8F#J)	.
*	*clefF4	*
=	=	=
12DD'L	4r	] pp
12AA'	.	.
12D'J	.	.
!	!	!LO:DY:a
4r	8EL 8F# 8A	>
.	8DJ	.
=	=	=
8DD	2r	] ppp
8r	.	.
4r	.	.
==	==	==
*-	*-	*-
!!!system-decoration: {(s1,s2)}
